X:1
T:Title
%%score { ( 1 5 ) | ( 2 3 4 ) }
L:1/8
Q:1/4=100
M:4/4
K:F
V:1 treble nm="Grand Piano"
V:5 treble 
V:2 bass 
V:3 bass 
V:4 bass 
V:1
 [Ac]2 [Ac][Ac] [Bd]2 [Bd]2 | [Ac]6 [Ac]2 | [GB]2 [GB]2 [Ac]2 [GB]2 | [FA]6 [Ac]2 | %4
w: Samuel~W.~Beazley * * * *||||
 [Bd]2 [Bd]2 [df]3 [Bd] | [Ac][_A=B][=Ac][_AB] [=Ac]3 c | [=Bd]3 [Bd] [Be]2 [Bf]2 | [ce]6 [ce]2 | %8
w: ||||
 [cf]3 [Ac] [Gc]2 [Bc]2 | [Ac]6 [Ac]2 | [A^c]2 [Ac]2 [Ad]3 [Ad] | [Ae][Ae][Ae][Ae] [Af]4 | %12
w: ||||
 z4 z2 z [Ad] |[M:15/16] [A^c][Ad]/-[Ad]/[Ac][Ad][Ac]-<[Ac][B=c]3/2 |[M:1/8] [Be] | %15
w: |||
[M:4/4] [Af]2 [Bf]2 [cf]3 [_ef] | [df][^ce][df][Bd] [A=c]4 | A>G F2 z4 | f>f f2 e4 | z4 f4- | %20
w: |||||
[M:9/8] f8- f |[M:4/4] [cf]4 [ce]4 | [cf]8 |] %23
w: |||
V:2
 F,2 F,F, [B,,F,]2 [D,F,]2 | F,6 F,2 | [C,E,]2 [C,E,]2 [C,F,]2 [C,E,]2 | [F,,C,]6 [F,,F,]2 | %4
 [B,,F,]2 [B,,F,]2 [B,,B,]3 [B,,F,] | [F,,F,][F,,F,][F,,F,][F,,F,] [F,,F,]3 [A,,F,] | %6
 [G,,F,]3 [G,,F,] [G,,G,]2 [G,,G,]2 | [C,G,]6 [C,B,]2 | [F,,A,]3 [F,,F,] [C,E,]2 [C,G,]2 | %9
 [F,,F,]6 F,2 | [E,G,]2 [E,G,]2 [D,F,]3 [D,F,] | [^C,G,][C,G,][C,G,][C,G,] [D,F,]3 A,, | %12
 D,F,E,D, z2 z F, |[M:15/16] E,F,/-F,/E,.F,3/2 z3/2 C,3/2 |[M:1/8] [C,G,] | %15
[M:4/4] [F,,F,]2 [G,,F,]2 [A,,F,]3 [A,,F,] | [B,,B,][B,,B,][B,,B,][B,,F,] [F,,F,]4 | z8 | %18
 [C,A,]>[C,A,] [C,A,]2 [C,G,]4 | z8 |[M:9/8] [F,,F,]>[G,,F,][A,,F,]- [A,,F,] [B,,F,]2 [G,,G,]3 | %21
[M:4/4] [C,A,]4 [C,B,]4 | [F,,A,]8 |] %23
V:3
 x8 | x8 | x8 | x8 | x8 | x8 | x8 | x8 | x8 | x8 | x8 | x8 | z4 A,,4- | %13
[M:15/16] A,,3/2-A,,3/2- A,,3 z3/2 |[M:1/8] x |[M:4/4] x8 | x8 | x8 | x8 | x8 |[M:9/8] x9 | %21
[M:4/4] x8 | x8 |] %23
V:4
 x8 | x8 | x8 | x8 | x8 | x8 | x8 | x8 | x8 | x8 | x8 | x8 | x8 |[M:15/16] z3/2 z3/2 z E,/- E,3 | %14
[M:1/8] x |[M:4/4] x8 | x8 | x8 | x8 | x8 |[M:9/8] x9 |[M:4/4] x8 | x8 |] %23
V:5
 x8 | x8 | x8 | x8 | x8 | x8 | x8 | x8 | x8 | x8 | x8 | x8 | x8 |[M:15/16] x15/2 |[M:1/8] x | %15
[M:4/4] x8 | x8 | z4 c4- | c8 | e>d c2 z4 |[M:9/8] A>Bc- c d2 =B3 |[M:4/4] x8 | x8 |] %23

